X: 1
T: Aileen Bonner's
M: 2/4
L: 1/8
R: polka
K: Dmaj
|: F/E/ | 
DF DF | A2 d>B | cA AG | EF GF/E/ |
DF DF | A2 d>B | cA GE | ED D :|
|: d | 
cA ce | d2 d>d | cA c/d/e | d2 d/c/d/e/ |
fd ec | dc AF | GB A/B/A/G/ | FD D :|
